docs/favicon.svg

<svg xmlns="http://www.w3.org/2000/svg" viewBox="0 0 167 166"><svg xmlns="http://www.w3.org/2000/svg" fill="none" viewBox="0 0 167 166"><path fill="#323649" stroke="#BA8C4E" d="M.5.5h166v165H.5z"/><path stroke="#BA8C4E" stroke-width="2" d="M105 24v116.004M63 24v116.004M84 11v142m-39-35h78M56 44h56M28 79h110m0-9v10m-1-11h16"/><circle cx="154" cy="69" r="3" fill="#BA8C4E"/><circle cx="84" cy="13" r="3" fill="#BA8C4E"/><circle cx="34" cy="24" r="3" fill="#BA8C4E"/><circle cx="46" cy="13" r="3" fill="#BA8C4E"/><circle cx="122" cy="13" r="3" fill="#BA8C4E"/><circle cx="92" cy="50" r="3" fill="#BA8C4E"/><circle cx="76" cy="50" r="3" fill="#BA8C4E"/><circle cx="69" cy="61" r="3" fill="#BA8C4E"/><circle cx="99" cy="61" r="3" fill="#BA8C4E"/><circle cx="71" cy="67" r="3" fill="#BA8C4E"/><circle cx="96" cy="67" r="3" fill="#BA8C4E"/><circle cx="96" cy="92" r="3" fill="#BA8C4E"/><circle cx="71" cy="92" r="3" fill="#BA8C4E"/><circle cx="69" cy="103" r="3" fill="#BA8C4E"/><circle cx="99" cy="103" r="3" fill="#BA8C4E"/><circle cx="76" cy="112" r="3" fill="#BA8C4E"/><circle cx="92" cy="112" r="3" fill="#BA8C4E"/><path stroke="#BA8C4E" stroke-width="2" d="M29 88V78m1 10H14"/><circle cx="13" cy="88" r="3" fill="#BA8C4E" transform="rotate(-180 13 88)"/><circle cx="111" cy="95" r="3" fill="#BA8C4E" transform="rotate(-180 111 95)"/><circle cx="57" cy="95" r="3" fill="#BA8C4E" transform="rotate(-180 57 95)"/><path stroke="#BA8C4E" stroke-width="2" d="M35 24h29"/><circle r="3" fill="#BA8C4E" transform="matrix(-1 0 0 1 134 23)"/><path stroke="#BA8C4E" stroke-width="2" d="M133 23h-29m2 116h9"/><circle r="3" fill="#BA8C4E" transform="matrix(-1 0 0 1 53 139)"/><circle r="3" fill="#BA8C4E" transform="matrix(-1 0 0 1 115 139)"/><circle r="3" fill="#BA8C4E" transform="matrix(-1 0 0 1 84 153)"/><path stroke="#BA8C4E" stroke-width="2" d="M63 139h-9m3-94v49m54-49v49m11 25V12M46 119V13m31 37h14M70 61h28m-28 0h28m-28 42h28m-21 9h14M70.707 66.293l27 27m-1.414-27-27 27"/><path stroke="#BA8C4E" d="M6.5 6.5h154v153H6.5z"/><path stroke="#BA8C4E" d="M3.5 3.5h160v159H3.5z"/></svg><style>@media (prefers-color-scheme:light){:root{filter:none}}</style></svg>

<svg xmlns="http://www.w3.org/2000/svg" version="1.1" xmlns:xlink="http://www.w3.org/1999/xlink" xmlns:svgjs="http://svgjs.com/svgjs" width="167" height="166"><svg xmlns="http://www.w3.org/2000/svg" fill="none" viewBox="0 0 167 166"><path fill="#323649" stroke="#BA8C4E" d="M.5.5h166v165H.5z"></path><path stroke="#BA8C4E" stroke-width="2" d="M105 24v116.004M63 24v116.004M84 11v142M45 118h78M56 44h56M28 79h110M138 70v10M137 69h16"></path><circle cx="154" cy="69" r="3" fill="#BA8C4E"></circle><circle cx="84" cy="13" r="3" fill="#BA8C4E"></circle><circle cx="34" cy="24" r="3" fill="#BA8C4E"></circle><circle cx="46" cy="13" r="3" fill="#BA8C4E"></circle><circle cx="122" cy="13" r="3" fill="#BA8C4E"></circle><circle cx="92" cy="50" r="3" fill="#BA8C4E"></circle><circle cx="76" cy="50" r="3" fill="#BA8C4E"></circle><circle cx="69" cy="61" r="3" fill="#BA8C4E"></circle><circle cx="99" cy="61" r="3" fill="#BA8C4E"></circle><circle cx="71" cy="67" r="3" fill="#BA8C4E"></circle><circle cx="96" cy="67" r="3" fill="#BA8C4E"></circle><circle cx="96" cy="92" r="3" fill="#BA8C4E"></circle><circle cx="71" cy="92" r="3" fill="#BA8C4E"></circle><circle cx="69" cy="103" r="3" fill="#BA8C4E"></circle><circle cx="99" cy="103" r="3" fill="#BA8C4E"></circle><circle cx="76" cy="112" r="3" fill="#BA8C4E"></circle><circle cx="92" cy="112" r="3" fill="#BA8C4E"></circle><path stroke="#BA8C4E" stroke-width="2" d="M29 88V78M30 88H14"></path><circle cx="13" cy="88" r="3" fill="#BA8C4E" transform="rotate(-180 13 88)"></circle><circle cx="111" cy="95" r="3" fill="#BA8C4E" transform="rotate(-180 111 95)"></circle><circle cx="57" cy="95" r="3" fill="#BA8C4E" transform="rotate(-180 57 95)"></circle><path stroke="#BA8C4E" stroke-width="2" d="M35 24h29"></path><circle r="3" fill="#BA8C4E" transform="matrix(-1 0 0 1 134 23)"></circle><path stroke="#BA8C4E" stroke-width="2" d="M133 23h-29M106 139h9"></path><circle r="3" fill="#BA8C4E" transform="matrix(-1 0 0 1 53 139)"></circle><circle r="3" fill="#BA8C4E" transform="matrix(-1 0 0 1 115 139)"></circle><circle r="3" fill="#BA8C4E" transform="matrix(-1 0 0 1 84 153)"></circle><path stroke="#BA8C4E" stroke-width="2" d="M63 139h-9M57 45v49M111 45v49M122 119V12M46 119V13M77 50h14M70 61h28M70 61h28M70 103h28M77 112h14M70.707 66.293l27 27M96.293 66.293l-27 27"></path><path stroke="#BA8C4E" d="M6.5 6.5h154v153H6.5z"></path><path stroke="#BA8C4E" d="M3.5 3.5h160v159H3.5z"></path></svg><style>@media (prefers-color-scheme: light) { :root { filter: none; } }
</style></svg>
